svgs/thin/window-restore.svg

<svg xmlns="http://www.w3.org/2000/svg" viewBox="0 0 512 512"><!--! Font Awesome Pro 6.4.2 by @fontawesome - https://fontawesome.com License - https://fontawesome.com/license (Commercial License) Copyright 2023 Fonticons, Inc. --><path d="M432 16H208c-35.3 0-64 28.7-64 64V96H128V80c0-44.2 35.8-80 80-80H432c44.2 0 80 35.8 80 80V304c0 44.2-35.8 80-80 80H416V368h16c35.3 0 64-28.7 64-64V80c0-35.3-28.7-64-64-64zM320 144H64c-26.5 0-48 21.5-48 48v64H368V192c0-26.5-21.5-48-48-48zM16 448c0 26.5 21.5 48 48 48H320c26.5 0 48-21.5 48-48V272H16V448zM64 128H320c35.3 0 64 28.7 64 64V448c0 35.3-28.7 64-64 64H64c-35.3 0-64-28.7-64-64V192c0-35.3 28.7-64 64-64z"/></svg>

<svg xmlns="http://www.w3.org/2000/svg" viewBox="0 0 512 512"><!--! Font Awesome Pro 6.1.1 by @fontawesome - https://fontawesome.com License - https://fontawesome.com/license (Commercial License) Copyright 2022 Fonticons, Inc. --><path d="M432 16H208C172.7 16 144 44.65 144 80V96H128V80C128 35.82 163.8 0 208 0H432C476.2 0 512 35.82 512 80V304C512 348.2 476.2 384 432 384H416V368H432C467.3 368 496 339.3 496 304V80C496 44.65 467.3 16 432 16zM320 128C355.3 128 384 156.7 384 192V448C384 483.3 355.3 512 320 512H64C28.65 512 0 483.3 0 448V192C0 156.7 28.65 128 64 128H320zM320 144H64C37.49 144 16 165.5 16 192V256H368V192C368 165.5 346.5 144 320 144zM64 496H320C346.5 496 368 474.5 368 448V272H16V448C16 474.5 37.49 496 64 496z"/></svg>
